src/assets/light/file-image.svg

<svg height="16" viewBox="0 0 16 16" width="16" xmlns="http://www.w3.org/2000/svg"><path d="m3.5 15-.5-.5020264v-12.9979736l.5-.5h5.7l.3.1 3.4 3.5.1.4v9.4986929l-.4955068.5013071zm8.5-.9995055v-8.0004945h-4v-4h-4v12.0004945zm-3.40409376-4.45096468c.10330101-.12498886.32781919-.14061247.4614245-.04687083l.05107487.04687083 1.84810919 3.06479028c.1049408.1523674.0099944.3385942-.1782326.3780968l-.0747495.0075831h-5.41381632c-.20988143 0-.33980803-.1805835-.2713282-.3310698l.03521159-.0546101 1.21575955-1.7587465c.10119284-.1224381.27853627-.1399292.42004009-.0524735l.0672468.0524735.33698525.6378203c.11564895.0857066.29678396.1084451.40990157.0412291l.05027262-.0412291zm-2.34590624-1.54952982c.41421356 0 .75.33578644.75.75s-.33578644.75-.75.75c-.41421357 0-.75-.33578644-.75-.75s.33578643-.75.75-.75zm2.75-6 2.903 3h-2.903z" fill="#424242" fill-rule="evenodd"/></svg>

<?xml version="1.0" encoding="UTF-8"?>
<svg width="16px" height="16px" viewBox="0 0 16 16" version="1.1" xmlns="http://www.w3.org/2000/svg" xmlns:xlink="http://www.w3.org/1999/xlink">
    <title>Artboard</title>
    <g stroke="none" stroke-width="1" fill="none" fill-rule="evenodd">
        <path d="M3.5,15 L3,14.4979736 L3,1.5 L3.5,1 L9.2,1 L9.5,1.1 L12.9,4.6 L13,5 L13,14.4986929 L12.5044932,15 L3.5,15 Z M12,14.0004945 L12,6 L8,6 L8,2 L4,2 L4,14.0004945 L12,14.0004945 Z M8.59590624,9.54952982 C8.69920725,9.42454096 8.92372543,9.40891735 9.05733074,9.50265899 L9.10840561,9.54952982 L10.9565148,12.6143201 C11.0614556,12.7666875 10.9665092,12.9529143 10.7782822,12.9924169 L10.7035327,13 L5.28971638,13 C5.07983495,13 4.94990835,12.8194165 5.01838818,12.6689302 L5.05359977,12.6143201 L6.26935932,10.8555736 C6.37055216,10.7331355 6.54789559,10.7156444 6.68939941,10.8031001 L6.75664621,10.8555736 L7.09363146,11.4933939 C7.20928041,11.5791005 7.39041542,11.601839 7.50353303,11.534623 L7.55380565,11.4933939 L8.59590624,9.54952982 Z M6.25,8 C6.66421356,8 7,8.33578644 7,8.75 C7,9.16421356 6.66421356,9.5 6.25,9.5 C5.83578643,9.5 5.5,9.16421356 5.5,8.75 C5.5,8.33578644 5.83578643,8 6.25,8 Z M9,2 L11.903,5 L9,5 L9,2 Z" fill="#424242"></path>
    </g>
</svg>
